apps/web/src/assets/svgs/panel.svg

<?xml version="1.0" encoding="UTF-8" standalone="no"?>
<!-- Created with Inkscape (http://www.inkscape.org/) -->

<svg
   width="8mm"
   height="8mm"
   viewBox="0 0 8 8"
   version="1.1"
   id="svg1"
   sodipodi:docname="panel_flat.svg"
   inkscape:version="1.3.2 (091e20ef0f, 2023-11-25)"
   xmlns:inkscape="http://www.inkscape.org/namespaces/inkscape"
   xmlns:sodipodi="http://sodipodi.sourceforge.net/DTD/sodipodi-0.dtd"
   xmlns="http://www.w3.org/2000/svg"
   xmlns:svg="http://www.w3.org/2000/svg">
  <sodipodi:namedview
     id="namedview1"
     pagecolor="#ffffff"
     bordercolor="#000000"
     borderopacity="0.25"
     inkscape:showpageshadow="2"
     inkscape:pageopacity="0.0"
     inkscape:pagecheckerboard="0"
     inkscape:deskcolor="#d1d1d1"
     inkscape:document-units="mm"
     inkscape:zoom="19.237484"
     inkscape:cx="29.733618"
     inkscape:cy="24.74336"
     inkscape:window-width="2560"
     inkscape:window-height="1515"
     inkscape:window-x="0"
     inkscape:window-y="1415"
     inkscape:window-maximized="1"
     inkscape:current-layer="layer1" />
  <defs
     id="defs1" />
  <g
     inkscape:label="Capa 1"
     inkscape:groupmode="layer"
     id="layer1"
     transform="translate(-186.3853,-51.426922)">
    <g
       id="g169-8"
       transform="matrix(0.96762994,0,0,0.96762994,97.600001,-9.9817384)">
      <path
         id="path162-4"
         style="color:#000000;fill:#000000;stroke-linecap:round;stroke-linejoin:round;-inkscape-stroke:none"
         d="M 93.540762 63.568168 A 0.30000001 0.30000001 0 0 0 93.242227 63.869374 L 93.242227 64.949226 L 92.160239 64.949226 A 0.30000001 0.30000001 0 0 0 91.86117 65.248295 A 0.30000001 0.30000001 0 0 0 92.160239 65.548966 L 93.242227 65.548966 L 93.242227 69.644608 L 92.160239 69.644608 A 0.30000001 0.30000001 0 0 0 91.86117 69.945279 A 0.30000001 0.30000001 0 0 0 92.160239 70.244348 L 93.242227 70.244348 L 93.242227 71.3242 A 0.30000001 0.30000001 0 0 0 93.540762 71.624871 A 0.30000001 0.30000001 0 0 0 93.841967 71.3242 L 93.841967 70.244348 L 97.937609 70.244348 L 97.937609 71.3242 A 0.30000001 0.30000001 0 0 0 98.236144 71.624871 A 0.30000001 0.30000001 0 0 0 98.537349 71.3242 L 98.537349 70.244348 L 99.617201 70.244348 A 0.30000001 0.30000001 0 0 0 99.917872 69.945279 A 0.30000001 0.30000001 0 0 0 99.617201 69.644608 L 98.537349 69.644608 L 98.537349 65.548966 L 99.617201 65.548966 A 0.30000001 0.30000001 0 0 0 99.917872 65.248295 A 0.30000001 0.30000001 0 0 0 99.617201 64.949226 L 98.537349 64.949226 L 98.537349 63.869374 A 0.30000001 0.30000001 0 0 0 98.236144 63.568168 A 0.30000001 0.30000001 0 0 0 97.937609 63.869374 L 97.937609 64.949226 L 93.841967 64.949226 L 93.841967 63.869374 A 0.30000001 0.30000001 0 0 0 93.540762 63.568168 z M 93.841967 65.548966 L 97.937609 65.548966 L 97.937609 69.644608 L 93.841967 69.644608 L 93.841967 65.548966 z " />
    </g>
  </g>
</svg>

<svg xmlns="http://www.w3.org/2000/svg" width="8mm" height="8mm" viewBox="0 0 8 8"><path d="M93.54 63.568a.3.3 0 0 0-.298.301v1.08H92.16a.3.3 0 0 0-.299.3.3.3 0 0 0 .3.3h1.081v4.096H92.16a.3.3 0 0 0-.299.3.3.3 0 0 0 .3.3h1.081v1.08a.3.3 0 0 0 .299.3.3.3 0 0 0 .301-.3v-1.08h4.096v1.08a.3.3 0 0 0 .298.3.3.3 0 0 0 .301-.3v-1.08h1.08a.3.3 0 0 0 .3-.3.3.3 0 0 0-.3-.3h-1.08v-4.096h1.08a.3.3 0 0 0 .3-.3.3.3 0 0 0-.3-.3h-1.08v-1.08a.3.3 0 0 0-.3-.3.3.3 0 0 0-.3.3v1.08h-4.095v-1.08a.3.3 0 0 0-.301-.3m.302 1.981h4.096v4.096h-4.096z" style="color:#000;fill:#000;stroke-linecap:round;stroke-linejoin:round;-inkscape-stroke:none" transform="matrix(.96763 0 0 .96763 -88.785 -61.409)"/></svg>
